assets/img/icons/license.svg

<svg width="48" height="48" viewBox="0 0 48 48" fill="none" xmlns="http://www.w3.org/2000/svg">
<path d="M17.1879 22.05C17.1879 17.7483 13.6896 14.25 9.38789 14.25C5.08619 14.25 1.58789 17.7483 1.58789 22.05C1.58789 24.4973 2.74424 26.6579 4.51289 28.0892V37.3517C4.51289 38.5665 6.05534 39.0872 6.79244 38.1219L9.38789 34.7231L11.9833 38.1219C12.7204 39.0872 14.2629 38.5665 14.2629 37.3517V28.0892C16.0315 26.6579 17.1879 24.4973 17.1879 22.05ZM47.4129 21.0458V37.65C47.4129 43.0262 43.039 47.4 37.6629 47.4H18.1629C14.062 47.4 10.5598 44.8475 9.12269 41.2556C9.20654 41.1834 9.30794 41.1386 9.38789 41.0606C10.3609 42.0083 11.6577 42.525 12.9915 42.525C13.5453 42.525 14.1049 42.4373 14.6509 42.252C16.6555 41.5715 18.0186 39.7443 18.1395 37.652H35.7129C36.7893 37.652 37.6629 36.7803 37.6629 35.702C37.6629 34.6236 36.7893 33.752 35.7129 33.752H18.1629V29.852H35.7129C36.7893 29.852 37.6629 28.9803 37.6629 27.902C37.6629 26.8236 36.7893 25.952 35.7129 25.952H20.3898C20.8363 24.7137 21.0879 23.4014 21.0879 22.052C21.0879 15.5994 15.8404 10.352 9.38789 10.352C9.05834 10.352 8.73464 10.3754 8.41289 10.4007V10.352C8.41289 4.97386 12.7867 0.600006 18.1629 0.600006H26.9671C27.285 0.600006 27.5989 0.625356 27.9129 0.646806V14.25C27.9129 17.4753 30.5376 20.1 33.7629 20.1H47.3661C47.3875 20.414 47.4129 20.7279 47.4129 21.0458ZM31.8129 14.25V1.49701C33.5932 2.17171 35.2312 3.21106 36.6196 4.59751L43.4134 11.3952C44.8018 12.7817 45.8412 14.4197 46.5159 16.2H33.7629C32.6865 16.2 31.8129 15.3245 31.8129 14.25Z" fill="#BF1F1F"/>
</svg>

<svg width="48" height="48" fill="none" xmlns="http://www.w3.org/2000/svg"><path d="M17.188 22.05c0-4.302-3.498-7.8-7.8-7.8s-7.8 3.498-7.8 7.8c0 2.447 1.156 4.608 2.925 6.04v9.262c0 1.215 1.542 1.735 2.28.77l2.595-3.399 2.595 3.399c.737.965 2.28.444 2.28-.77v-9.263c1.769-1.431 2.925-3.592 2.925-6.039Zm30.225-1.004V37.65c0 5.376-4.374 9.75-9.75 9.75h-19.5c-4.101 0-7.603-2.553-9.04-6.144.084-.073.185-.117.265-.195a5.165 5.165 0 0 0 5.263 1.191 5.161 5.161 0 0 0 3.489-4.6h17.573a1.95 1.95 0 1 0 0-3.9h-17.55v-3.9h17.55a1.95 1.95 0 1 0 0-3.9H20.39c.446-1.238.698-2.55.698-3.9 0-6.453-5.248-11.7-11.7-11.7-.33 0-.653.023-.975.049v-.049C8.413 4.974 12.787.6 18.163.6h8.804c.318 0 .632.025.946.047V14.25a5.857 5.857 0 0 0 5.85 5.85h13.603c.022.314.047.628.047.946Zm-15.6-6.796V1.497a13.606 13.606 0 0 1 4.807 3.1l6.793 6.798a13.56 13.56 0 0 1 3.103 4.805H33.763a1.952 1.952 0 0 1-1.95-1.95Z" fill="#BF1F1F"/></svg>
